X:19
T:Entre le boeuf et l'ne gris
R:chanson
M:4/4
L:1/4
Q:2/4=100
Z:<anamnese@laposte.net>
K:F
D D/E/FD|AAA2|d2 A2|A/G/F/G/A2|
D/E/F/G/G2|A/G/F/E/D2|D/E/F/G/A/F/G/A/|FED2 :|
